X: 1
T: Donald Bane
T: 8x32S 3C (RSCDS Bk 17)
P: Donald Bane
R: strathspey
C: arr. T. Traub 1-24-2014
L: 1/8
M: C
K: A
|: a|"A"e/e/e e>d c>de>c|"A"A>e!beambr1!c<a "D"f2 e>a|"A"e/e/e e>d c>de>c|"Bm"B/B/B c>e "D"f2 "E"e2 :|
g|"A"a>fa>f e<cA>g|"A"a>ef>a "D"f2 "E"ef/g/|"A"a>ga>f a>f!beambr1!e<c|"Bm"B/B/B c>e "D"f2 "E"ef/g/|
"A"a>fa>f e<cA>g|"A"a>ga>f "D"f>e"E"f>g|"A"a>ga>f a>f!beambr1!e<c|"Bm"B/B/B c>e "D"f2 "E"e |]
